!!!CDT:
!!!PTL: Il secondo libro de madrigali a cinque voci
!!!PPP: Bologna
!!!PPR: Rossi
!!!PDT: 1584
!!!PUB-format:
!!!RISM: C 4174
!!!rime: 75
!!!AGN: Madrigal
!!!SCT: Trm0075a
!!!SCA: Trm0075a
!!!original-voices: 5
!!!extant-voices: 1
!!!complete: N
!!!final: G?
!!!COM: Cortellini, Camillo
!!!OTL: Poiché madonna sdegna
**kern	**text
*part1	*part1
*staff1	*staff1
*I"Tenore	*
*I'T	*
*oclefC3	*
*clefGv2	*
*k[]	*
*omet(C)	*
*M4/2	*
=1	=1
!!LO:TX:a:t=Prima Parte.
2d	Poi-
4.g	-che
8g	ma-
4e	-don-
4c	-na
2d	sde-
=2	=2
2d	-gna,
4r	.
4g	<Poi
4.f#X	che
8f#X	ma-
4g	-don-
4d	-na
=3	=3
2e	sde-
2d	-gna,>
2r	.
4r	.
4G	Poi
=4	=4
4.d	che
8d	ma-
4B	-don-
4B	-na
2A	sde-
2B	-gna,
=5	=5
2A	<Poi
4.B	che
8c	ma-
4d	-don-
4G	-na
2d	sde-
=6	=6
4B	-gna,>
2d	Fuor
2G	d'o-
4G	-gni
4c	suo
4A	co-
=7	=7
4.c	-stu-
8B	.
8AL	.
8GJ	.
4F#i	.
[1G	-me,
=8	=8
2G]	.
2r	.
1r	.
=9	=9
1r	.
4d	Vol-
8d	-ger
8c	in
4.B	me
8A	.
=10	=10
4G	.
4d	de'
4c	suoi
4G	be-
4G	-gli oc-
4B	-chi il
8AL	So-
8B	.
8c	.
8dJ	.
=11	=11
8eL	.
8d	.
8c	.
8BJ	.
8AL	.
8GJ	.
4F#i	.
2G	-le,
4d	Vol-
8d	-ger
8c	in
=12	=12
2.B	me
4e	de'
4.e	suoi
8d	be-
4c	-gli oc-
4d	-chi il
=13	=13
4e	So-
4c	.
8dL	.
8GJ	.
2g	.
4f	.
2e	.
=14	=14
!!LO:TX:a:t=Seconda Parte.
0d	-le.
=||15	=||15
0r	.
=16	=16
2r	.
4r	.
2d	Qual-
2e	-ch'ar-
4d	-te, A-
=17	=17
4c	-mor
8BL	.
8AJ	.
4B	.
4c	m'in-
4d	-se-
4.e	.
8dL	.
8c	.
8BJ	.
=18	=18
4A	.
4.d	.
8c	.
4B	.
4A	.
4B	.
2A	.
=19	=19
2B	-gna,
4r	.
4d	On-
4d	-d'io
4e	del
4c	va-
4d	-go
=20	=20
2e	lu-
4d	-me,
4G	On-
4.c	-d'io
8c	del
4f	va-
4g	-go
=21	=21
2c	lu-
4d	-me,
4d	<On-
4d	-d'io
4e	del
4c	va-
4d	-go
=22	=22
4.e	lu-
8d	.
1c	.
2B	-me>
=23	=23
0r	.
=24	=24
0r	.
=25	=25
0r	.
=26	=26
1r	.
2r	.
2f	E
=27	=27
4e	gli oc-
4.f#X	-chi e-
8f#i	-gri
4g	con-
4e	-so-
4f#i	.
4g	-le,
4g	<E
=28	=28
4f#X	gli oc-
4.g	-chi e-
8g	-gri
4c	con-
2d	-so-
2c	-le:>
=29	=29
2r	.
4r	.
4G	Né
4c	giu-
4G	-sto
4d	fia,
[4fnX	che
=30	=30
4f]	.
2e	te-
4d	-co el-
4e	-la
4f	se'n
4g	do-
8g	-glia,
8f	se'n
=31	=31
2e	do-
4e	-glia,
4c	Né
4f	giu-
4c	-sto
4d	fia,
4g	<Né
=32	=32
4.g	giu-
8g	-sto
2e	fia>
1r	.
=33	=33
0r	.
=34	=34
1r	.
2r	.
4r	.
4d	Ché,
=35	=35
4.g	se
8e	fu-
4f	-rom-
4g	-mi il
2c	co-
4d	-re,
4d	<Ché,
=36	=36
4.f	se
8d	fu-
4f	-rom-
4f	-mi il
2g	co-
4g	-re,>
4G	Fia
=37	=37
4d	'l
4.c	mio
8c	fur-
4A	-to
2G	mi-
4A	-no-
4d	-re,
=38	=38
4B	<Fia
4.A	'l
8A	mio
4A	fur-
4c#X	-to
4d	mi-
2e	-no-
=39	=39
2d	-re>
4r	.
2d	Quan-
4g	-do in
4f	dol-
8cnX	-ce
8d	ven-
=40	=40
4A	-det-
4d	-ta,
4d	<Quan-
4d	-do in
4f	dol-
8e	-ce
8d	ven-
4c#X	-det-
4d	-ta>
=41	=41
4r	.
4d	un
4g	guar-
4cnXi	-do i'
1d	to-
=42	=42
4d	-glia,
4d	un
4.c	guar-
8B	.
4A	.
4B	-do i'
2d	to-
=43	=43
2d	-glia,
4r	.
2d	Quan-
4g	-do in
4f	dol-
8c	-ce
8d	ven-
=44	=44
4A	-det-
4d	-ta,
4d	<Quan-
4d	-do in
4f	dol-
8e	-ce
8d	ven-
4c#X	-det-
4d	-ta>
=45	=45
4r	.
4d	un
4g	guar-
4cnXi	-do i'
1d	to-
=46	=46
4d	-glia,
4d	<un
4c	guar-
4B	.
4A	.
4B	-do i'
2d	to-
=47	=47
0dl	-glia.
==	==
*-	*-
!!!RDF**kern: i = editorial accidental
!!!RDF**kern: l = terminal long
!!!ENC: Emiliano Ricciardi
!!!END: 2018
!!!EED: Ricciardi, Emiliano
!!!EEV: 2018/09/18
!!!YEC: Copyright 2018 Emiliano Ricciardi, All Rights Reserved
!!!ONB: Translated from MusicXML on 2018/09/18 and edited by Craig Stuart Sapp
!!@@BEGIN:	VERSEDATA
!!@SOLERTI:	75
!!@CATALOGNUM:	Trm0075
!!@LAST_MODIFIED: 2020/07/12
!!@TITLE:		Poiché madonna sdegna
!!@GENRE:		madrigale
!!@MANUSRC:	Amz, Brn, C, E<sub>1</sub>, F<sub>2</sub>, Ts<sub>1</sub>, V<sub>8</sub>, V<sub>13/TS1</sub>
!!@PRINTSRC:	4, 8, 9, 11, 12, 13, 15, 20, 24, 29, 33, 67, 141, 166, 169
!!@@BEGIN:	VERSES
!!@ABOUTIT:	Prega Amore che, poiché la sua donna sdegna di rimirarlo, gl'insegni alcuna arte con la quale possa involarle qualche sguardo.
!!@ABOUTEN:	Because his lady disdains to look at him, he begs Love to teach him an art through which he could steal some glances from her.
!!@EDITOR:	Solerti, Angelo
!!@EDITION_TITLE: Le Rime di Torquato Tasso
!!@EDITION_LOC:	Bologna
!!@EDITION_PUB:	Romagnoli-Dall’Acqua
!!@EDITION_DATE:  1898-1902
!!@EDITION_VOL:	2
!!@EDITION_PAGE:  108
!!@TRANSLATOR:	Maria Pastore Passaro; adapted by Emiliano Ricciardi and Amyrose McCue Gill
!!@TRANSLATION_TITLE: Rhymes of Love
!!@TRANSLATION_LOC: Mineola, NY
!!@TRANSLATION_PUB: Legas
!!@TRANSLATION_DATE: 2011
!!@TRANSLATION_PAGE: 72-73
!!@VERSE:
!!	Poiché madonna sdegna,
!!	Fuor d'ogni suo costume,
!!	Volger in me de' suoi begli occhi il sole,
!!	Qualch'arte, Amor, m'insegna,
!!	Ond'io del vago lume
!!	Alcun bel raggio ascosamente invole:
!!	Né giusto fia che teco ella se 'n doglia;
!!	Ché, se furommi il core,
!!	Fia 'l mio furto minore
!!	Quando in dolce vendetta un guardo i' toglia.
!!@TVERSE:
!!	Since my Lady disdains
!!	More than is her usual custom,
!!	To turn to me the sun of her fair eyes,
!!	Teach me, Love, some art
!!	Whereby I, of [that] lovely light
!!	May steal unseen some beautiful ray:
!!	Nor would it be just that she complains to you;
!!	For, if she stole my heart,
!!	My theft would be the lesser
!!	When, in sweet revenge, I seize one glance.
!!@@END:		VERSES
!!@OTHER_CRIT_ED:   Torquato Tasso, <i>Rime d’amore (secondo il codice
!!		Chigiano L VIII 302)</i>, eds. Franco Gavazzeni and
!!		Vercingetorige Martignone, vol. 4 of <i>Edizione
!!		Nazionale delle opere di Torquato Tasso</i>
!!		(Alessandria: Edizioni Dell’Orso, 2004), 53.
!!@ATTRIBUTION_ABOUT:	Secure
!!		<br>
!!		Among other authoritative sources (see Literary
!!		Sources), this poem appears in the autograph Chigiano
!!		L.VIII.302 (Biblioteca Vaticana, Rome), compiled
!!		around 1584&ndash;85.
!!@DATING:
!!@DEDICATEE:	Bendidio, Lucrezia
!!@COMMENTARY:
!!@@END:		VERSEDATA
!!@@BEGIN:	SETTING
!!@CATALOGNUM:	Trm0075a
!!@RIMETITLE:	Poiché madonna sdegna
!!@SOLERTI:	75
!!@COMPOSER:	Cortellini, Camillo
!!@PRINCEPSTITLE:	Il secondo libro de madrigali a cinque voci
!!@PRINCEPSLOC:	Bologna
!!@NORMLOC:	Bologna
!!@NORMPUB:	Rossi
!!@NORMPUBSHORT:	Rossi
!!@PRINCEPSPUB:	Rossi
!!@PRINCEPSYEAR:	1584
!!@PRINCEPSRISM:	C 4174
!!@REPRINTS:	
!!@OVOICES:	5
!!@EXTANTVOICES:	1
!!@PARTBOOKS:	
!!@EXTPARTBOOKS:	
!!@OCLEFS:	C3
!!@OMENSURATION:	C
!!@OKEYSIG:	-
!!@FINAL:	G?
!!@TIMPEDITOR:	Ricciardi, Emiliano
!!@NOTE:		
!!@@END:		SETTING
